src/img/logo.svg

<svg width="156" height="50" viewBox="0 0 156 50" fill="none" xmlns="http://www.w3.org/2000/svg">
<path d="M90.5174 0.319149H96.1791V16.5957H112.737V22.0213H97.995C97.0336 22.0213 96.1791 21.9149 95.4313 21.5957C94.6835 21.383 94.0426 20.9574 93.4017 20.3191C92.8675 19.7872 92.4403 19.4681 92.1198 19.1489C91.9061 18.8298 91.5857 18.5106 91.372 18.0851C91.0516 17.5532 90.8379 17.0213 90.7311 16.5957C90.6243 16.0638 90.5174 15.5319 90.5174 14.8936V0.319149ZM66.1618 0.319149H71.8234V16.5957H88.381V22.0213H73.6394C72.678 22.0213 71.8234 21.9149 71.0757 21.5957C70.3279 21.383 69.687 20.9574 69.0461 20.3191C68.5119 19.7872 68.0846 19.4681 67.7642 19.1489C67.5505 18.8298 67.2301 18.5106 67.0164 18.0851C66.6959 17.5532 66.4823 17.0213 66.3755 16.5957C66.2687 16.0638 66.1618 15.5319 66.1618 14.8936V0.319149ZM32.9399 7.12766C32.9399 5.85106 33.2604 4.78723 33.7945 3.93617C34.3286 3.08511 34.7559 2.44681 35.29 2.02128C35.8241 1.59574 36.4651 1.17021 37.3197 0.957447C37.747 0.851064 38.0674 0.744681 38.6015 0.638298C39.0288 0.531915 39.6698 0.531915 40.5243 0.425532C40.6312 0.425532 40.738 0.425532 40.8448 0.425532C40.9516 0.425532 41.0585 0.425532 41.1653 0.425532H56.2273C57.4024 0.425532 58.3638 0.638298 59.2183 0.957447C60.0729 1.2766 60.8207 1.91489 61.6753 2.87234C62.3162 3.51064 62.7435 4.25532 62.9571 5C63.1708 5.74468 63.3844 6.59574 63.3844 7.65957V13.8298H38.6015V16.4894H63.3844V21.9149H39.8834C38.8152 21.9149 37.8538 21.7021 36.9992 21.2766C36.1446 20.8511 35.29 20.2128 34.5423 19.2553C34.0082 18.617 33.6877 17.9787 33.3672 17.3404C33.1536 16.7021 33.0467 16.1702 33.0467 15.7447V7.12766H32.9399ZM57.7228 5.74468H38.6015V8.29787H57.7228V5.74468ZM6.6615 0.319149L8.69113 15.2128L10.4003 4.89362C10.5071 4.25532 10.6139 3.7234 10.9344 3.29787C11.1481 2.76596 11.4685 2.34043 11.789 1.91489C12.3231 1.2766 12.964 0.851064 13.7118 0.531915C14.5664 0.106383 15.421 0 16.2756 0C17.1301 0 17.9847 0.106383 18.7325 0.531915C19.4802 0.851064 20.1212 1.38298 20.6553 1.91489C21.4031 2.76596 21.8303 3.7234 22.044 4.89362L23.7532 15.2128L25.7828 0.319149H31.4444L29.3079 16.2766C29.2011 17.3404 28.8807 18.2979 28.4534 19.1489C28.0261 20 27.5988 20.6383 26.9578 21.0638C26.4237 21.5957 25.7828 21.9149 25.035 22.1277C24.5009 22.3404 23.7532 22.3404 23.0054 22.234C22.1508 22.1277 21.4031 21.7021 20.7621 21.1702C20.1212 20.6383 19.5871 19.8936 19.1598 18.9362C19.053 18.617 18.8393 18.2979 18.7325 17.8723C18.6257 17.4468 18.5188 16.9149 18.3052 16.2766L16.1687 5.95745L14.1391 16.2766C14.0323 16.9149 13.9255 17.4468 13.8186 17.766C13.7118 18.1915 13.605 18.5106 13.3913 18.8298C12.9641 19.7872 12.3231 20.6383 11.6822 21.0638C11.0412 21.5957 10.2935 21.9149 9.4389 22.1277C8.69114 22.234 7.94338 22.234 7.30244 22.0213C6.55468 21.8085 5.91374 21.4894 5.37963 20.9574C4.84551 20.4255 4.3114 19.7872 3.88411 19.0426C3.45682 18.1915 3.24317 17.3404 3.02952 16.1702L0.893066 0.212766H6.6615V0.319149Z" fill="#3F4559"/>
<path d="M133.781 27.9788H139.442V44.2554H156V49.6809H141.152C140.19 49.6809 139.336 49.5746 138.588 49.2554C137.84 49.0426 137.199 48.6171 136.558 47.9788C136.024 47.4469 135.597 47.1277 135.276 46.8086C135.063 46.4895 134.742 46.1703 134.529 45.7448C134.208 45.2129 133.994 44.6809 133.888 44.2554C133.781 43.7235 133.674 43.1916 133.674 42.5533V27.9788H133.781ZM100.559 34.7873C100.559 33.5107 100.879 32.4469 101.413 31.5958C101.948 30.7448 102.375 30.1065 102.909 29.6809C103.443 29.2554 104.084 28.8299 104.939 28.6171C105.366 28.5107 105.686 28.4043 106.221 28.298C106.648 28.1916 107.289 28.1916 108.143 28.0852C108.25 28.0852 108.357 28.0852 108.464 28.0852C108.571 28.0852 108.677 28.0852 108.784 28.0852H123.846C125.021 28.0852 125.983 28.298 126.837 28.6171C127.692 28.9363 128.44 29.5746 129.294 30.532C129.935 31.1703 130.363 31.915 130.576 32.6597C130.79 33.4043 131.003 34.2554 131.003 35.3192V41.4895H106.221V44.149H131.003V49.5746H107.502C106.434 49.5746 105.473 49.3618 104.618 48.9363C103.764 48.5107 102.909 47.8724 102.161 46.915C101.627 46.2767 101.307 45.6384 100.986 45.0001C100.773 44.3618 100.666 43.8299 100.666 43.4043V34.7873H100.559ZM125.342 33.4043H106.221V35.9575H125.342V33.4043ZM67.4438 34.7873C67.4438 33.5107 67.7643 32.4469 68.2984 31.5958C68.8325 30.7448 69.2598 30.1065 69.7939 29.6809C70.328 29.2554 70.969 28.8299 71.8236 28.6171C72.2509 28.5107 72.5713 28.4043 73.1054 28.298C73.5327 28.1916 74.1737 28.1916 75.0283 28.0852C75.1351 28.0852 75.2419 28.0852 75.3487 28.0852C75.4555 28.0852 75.5624 28.0852 75.6692 28.0852H90.7312C91.9063 28.0852 92.8677 28.298 93.7223 28.6171C94.5768 28.9363 95.3246 29.5746 96.1792 30.532C96.8201 31.1703 97.2474 31.915 97.4611 32.6597C97.6747 33.4043 97.8883 34.2554 97.8883 35.3192V41.4895H73.1054V44.149H97.8883V49.5746H74.3873C73.3191 49.5746 72.3577 49.3618 71.5031 48.9363C70.6485 48.5107 69.7939 47.8724 69.0462 46.915C68.5121 46.2767 68.1916 45.6384 67.8711 45.0001C67.5506 44.3618 67.5507 43.8299 67.5507 43.4043V34.7873H67.4438ZM92.2267 33.4043H73.1054V35.9575H92.2267V33.4043ZM33.2605 27.9788H38.9221V35.8512H59.1116V27.9788H64.7733V49.5746H59.1116V41.1703H38.8153V49.5746H33.1537V27.9788H33.2605ZM6.76844 27.9788L8.79807 42.8724L10.5072 32.5533C10.6141 31.915 10.7209 31.3831 11.0413 30.9575C11.255 30.4256 11.5755 30.0001 11.8959 29.5746C12.43 28.9363 13.071 28.5107 13.8187 28.1916C14.5665 27.8724 15.4211 27.6597 16.2757 27.6597C17.1303 27.6597 17.9848 27.7661 18.7326 28.1916C19.4804 28.5107 20.1213 29.0426 20.6554 29.5746C21.4032 30.4256 21.8305 31.3831 22.0441 32.5533L23.7533 42.8724L25.7829 27.9788H31.4445L29.3081 43.9363C29.2012 45.0001 28.8808 45.9575 28.4535 46.8086C28.0262 47.6597 27.5989 48.298 26.958 48.7235C26.4238 49.2554 25.7829 49.5746 25.0351 49.7873C24.2874 50.0001 23.6464 50.0001 22.7919 49.8937C21.9373 49.7873 21.1895 49.3618 20.5486 48.8299C19.9076 48.298 19.3735 47.5533 18.9462 46.5958C18.8394 46.2767 18.6258 45.9575 18.519 45.532C18.4121 45.1065 18.3053 44.5746 18.0917 43.9363L15.9552 33.6171L13.9256 43.9363C13.8187 44.5746 13.7119 45.1065 13.6051 45.4256C13.4983 45.8512 13.3915 46.1703 13.1778 46.4895C12.7505 47.4469 12.1096 48.298 11.4686 48.7235C10.8277 49.2554 10.0799 49.5746 9.22536 49.7873C8.79807 50.0001 8.15713 50.0001 7.40937 49.7873C6.66161 49.5746 6.02067 49.2554 5.48656 48.7235C4.95245 48.1916 4.41833 47.5533 3.99104 46.8086C3.56375 45.9575 3.3501 45.1065 3.13646 43.9363L1 27.9788H6.76844Z" fill="#3F4559"/>
<path d="M121.176 7.97866C119.894 6.70207 117.757 7.65951 117.757 9.36164V10.6382V18.7233V19.9999C117.757 21.8084 119.894 22.6595 121.176 21.3829L126.73 15.851C127.371 15.2127 127.371 14.2553 126.73 13.617L121.176 7.97866Z" fill="#FF0000"/>
<path d="M135.49 7.97866C134.208 6.70207 132.072 7.65951 132.072 9.36164V10.6382V18.7233V19.9999C132.072 21.8084 134.208 22.6595 135.49 21.3829L141.045 15.851C141.686 15.2127 141.686 14.2553 141.045 13.617L135.49 7.97866Z" fill="#FFB53F"/>
<path d="M149.59 7.87222C148.309 6.59562 146.172 7.55307 146.172 9.2552V10.5318V18.6169V19.8935C146.172 21.702 148.309 22.5531 149.59 21.2765L155.145 15.7446C155.786 15.1063 155.786 14.1488 155.145 13.5105L149.59 7.87222Z" fill="#32C700"/>
</svg>

<svg width="156" height="50" fill="none" xmlns="http://www.w3.org/2000/svg"><path d="M90.517.32h5.662v16.276h16.558v5.425H97.995c-.961 0-1.816-.106-2.564-.425-.748-.213-1.388-.639-2.03-1.277-.533-.532-.96-.85-1.281-1.17-.214-.32-.534-.638-.748-1.064a5.673 5.673 0 01-.64-1.49c-.108-.531-.215-1.063-.215-1.701V.319zm-24.355 0h5.661v16.276h16.558v5.425H73.639c-.961 0-1.816-.106-2.563-.425-.748-.213-1.389-.639-2.03-1.277-.534-.532-.961-.85-1.282-1.17-.213-.32-.534-.638-.748-1.064a5.67 5.67 0 01-.64-1.49c-.107-.531-.214-1.063-.214-1.701V.319zM32.94 7.127c0-1.277.32-2.34.855-3.192.534-.85.96-1.49 1.495-1.915.534-.425 1.175-.85 2.03-1.064.427-.106.747-.212 1.282-.319.427-.106 1.068-.106 1.922-.212h15.703c1.175 0 2.137.212 2.991.531.855.32 1.603.958 2.457 1.915A4.958 4.958 0 0162.957 5c.214.745.427 1.596.427 2.66v6.17H38.602v2.66h24.782v5.425h-23.5c-1.069 0-2.03-.213-2.885-.638a7.112 7.112 0 01-2.457-2.022c-.534-.638-.854-1.276-1.175-1.915-.213-.638-.32-1.17-.32-1.595V7.128h-.107zm24.783-1.383H38.602v2.553h19.12V5.745zM6.66.319l2.03 14.894 1.71-10.32c.106-.638.213-1.17.533-1.595.214-.532.535-.958.855-1.383.534-.638 1.175-1.064 1.923-1.383C14.566.106 15.42 0 16.276 0c.854 0 1.709.106 2.457.532.747.32 1.388.851 1.922 1.383.748.851 1.175 1.808 1.389 2.979l1.71 10.319L25.782.319h5.661l-2.136 15.958a8.2 8.2 0 01-.855 2.872c-.427.851-.854 1.49-1.495 1.915-.534.532-1.175.85-1.923 1.064-.534.212-1.282.212-2.03.106-.854-.106-1.602-.532-2.243-1.064-.64-.532-1.175-1.276-1.602-2.234-.107-.319-.32-.638-.427-1.064-.107-.425-.214-.957-.428-1.595L16.17 5.957l-2.03 10.32c-.107.638-.213 1.17-.32 1.489-.107.426-.214.745-.428 1.064-.427.957-1.068 1.808-1.709 2.234-.64.532-1.389.85-2.243 1.064-.748.106-1.496.106-2.137-.107-.747-.213-1.388-.532-1.922-1.064a9.178 9.178 0 01-1.496-1.914c-.427-.851-.64-1.703-.854-2.873L.893.213h5.769v.106zM133.781 27.979h5.661v16.276H156v5.426h-14.848c-.962 0-1.816-.106-2.564-.426-.748-.212-1.389-.638-2.03-1.276-.534-.532-.961-.851-1.282-1.17-.213-.32-.534-.639-.747-1.064a5.628 5.628 0 01-.641-1.49c-.107-.532-.214-1.063-.214-1.702V27.98h.107zm-33.222 6.808c0-1.276.32-2.34.854-3.191.535-.851.962-1.49 1.496-1.915.534-.426 1.175-.851 2.03-1.064.427-.106.747-.213 1.282-.319.427-.106 1.068-.106 1.922-.213h15.703c1.175 0 2.137.213 2.991.532.855.32 1.603.958 2.457 1.915a4.952 4.952 0 011.282 2.128c.214.744.427 1.595.427 2.66v6.17h-24.782v2.659h24.782v5.426h-23.501c-1.068 0-2.029-.213-2.884-.639a7.123 7.123 0 01-2.457-2.021c-.534-.638-.854-1.277-1.175-1.915-.213-.638-.32-1.17-.32-1.596v-8.617h-.107zm24.783-1.383h-19.121v2.553h19.121v-2.553zm-57.898 1.383c0-1.276.32-2.34.854-3.191s.962-1.49 1.496-1.915c.534-.426 1.175-.851 2.03-1.064.427-.106.747-.213 1.281-.319.428-.106 1.069-.106 1.923-.213h15.703c1.175 0 2.137.213 2.991.532.855.32 1.603.958 2.457 1.915a4.96 4.96 0 011.282 2.128c.214.744.427 1.595.427 2.66v6.17H73.105v2.659h24.783v5.426h-23.5c-1.069 0-2.03-.213-2.885-.639a7.115 7.115 0 01-2.457-2.021c-.534-.638-.854-1.277-1.175-1.915-.32-.638-.32-1.17-.32-1.596v-8.617h-.107zm24.783-1.383H73.105v2.553h19.122v-2.553zM33.26 27.98h5.662v7.872h20.19V27.98h5.661v21.596h-5.661V41.17H38.815v8.405h-5.661V27.979h.106zm-26.492 0l2.03 14.893 1.71-10.319c.106-.638.213-1.17.533-1.595.214-.532.534-.958.855-1.383.534-.639 1.175-1.064 1.923-1.383.747-.32 1.602-.532 2.457-.532.854 0 1.709.106 2.457.532.747.319 1.388.85 1.922 1.383.748.85 1.175 1.808 1.39 2.978l1.708 10.32 2.03-14.894h5.662l-2.137 15.957a8.203 8.203 0 01-.855 2.873c-.427.85-.854 1.489-1.495 1.915-.534.531-1.175.85-1.923 1.063-.748.213-1.389.213-2.243.107-.855-.107-1.603-.532-2.243-1.064-.641-.532-1.175-1.277-1.603-2.234-.107-.32-.32-.638-.427-1.064-.107-.425-.214-.957-.427-1.596l-2.137-10.319-2.03 10.32c-.106.638-.213 1.17-.32 1.489-.107.425-.213.744-.427 1.063-.428.958-1.068 1.809-1.71 2.235-.64.531-1.388.85-2.243 1.063-.427.213-1.068.213-1.816 0-.747-.212-1.388-.532-1.922-1.063a9.177 9.177 0 01-1.496-1.915c-.427-.851-.64-1.703-.855-2.873L1 27.98h5.768z" fill="#3F4559"/><path d="M121.176 7.979c-1.282-1.277-3.419-.32-3.419 1.383V20c0 1.808 2.137 2.66 3.419 1.383l5.554-5.532c.641-.638.641-1.596 0-2.234l-5.554-5.638z" fill="red"/><path d="M135.49 7.979c-1.282-1.277-3.418-.32-3.418 1.383V20c0 1.808 2.136 2.66 3.418 1.383l5.555-5.532c.641-.638.641-1.596 0-2.234l-5.555-5.638z" fill="#FFB53F"/><path d="M149.59 7.872c-1.281-1.276-3.418-.319-3.418 1.383v10.638c0 1.809 2.137 2.66 3.418 1.383l5.555-5.531c.641-.639.641-1.596 0-2.234l-5.555-5.639z" fill="#32C700"/></svg>
